;FLAVOR:Marlin
;TIME:1573
;Filament used: 2.95533m
;Layer height: 0.2
;MINX:97.375
;MINY:98.17
;MINZ:0.25
;MAXX:137.625
;MAXY:142.27
;MAXZ:13.05
;Generated with Cura_SteamEngine 5.0.0
M140 S85
M105
M190 S85
M104 S238
M105
M109 S238
M82 ;absolute extrusion mode
; Ender 3 Custom Start G-code
G92 E0 ; Reset Extruder
G28 ; Home all axes
G1 Z2.0 F3000 ; Move Z Axis up little to prevent scratching of Heat Bed
G1 X0.1 Y20 Z0.3 F5000.0 ; Move to start position
G1 X0.1 Y200.0 Z0.3 F1500.0 E15 ; Draw the first line
G1 X0.4 Y200.0 Z0.3 F5000.0 ; Move to side a little
G1 X0.4 Y20 Z0.3 F1500.0 E30 ; Draw the second line
G92 E0 ; Reset Extruder
G1 Z2.0 F3000 ; Move Z Axis up little to prevent scratching of Heat Bed
G1 X5 Y20 Z0.3 F5000.0 ; Move over to prevent blob squish
M83 ;relative extrusion mode
G1 F2100 E-0.5
;LAYER_COUNT:65
;LAYER:0
M107
M204 S550
M205 X8 Y8
G0 F9000 X100.125 Y100.534 Z0.25
G0 X97.375 Y106.866
M204 S480
;TYPE:SKIRT
G1 F2100 E0.5
G1 F1200 X97.398 Y106.356 E0.03992
G1 X97.445 Y105.833 E0.04106
G1 X97.616 Y104.867 E0.07672
G1 X97.75 Y104.367 E0.04048
G1 X98.097 Y103.42 E0.07887
G1 X98.321 Y102.943 E0.04121
G1 X98.813 Y102.094 E0.07674
G1 X99.111 Y101.669 E0.04059
G1 X99.753 Y100.905 E0.07804
G1 X100.125 Y100.534 E0.04109
G1 X100.872 Y99.907 E0.07627
G1 X101.296 Y99.609 E0.04053
G1 X102.165 Y99.106 E0.07852
G1 X102.641 Y98.884 E0.04107
G1 X103.583 Y98.542 E0.07837
G1 X104.086 Y98.408 E0.04071
G1 X105.054 Y98.238 E0.07686
G1 X105.577 Y98.192 E0.04106
G1 X106.076 Y98.17 E0.03906
G1 X130.724 Y98.17 E1.92754
G1 X131.208 Y98.191 E0.03789
G1 X131.419 Y98.209 E0.01656
G1 X132.087 Y98.306 E0.05279
G1 X132.621 Y98.439 E0.04304
G1 X133.554 Y98.781 E0.07771
G1 X133.746 Y98.871 E0.01658
G1 X134.603 Y99.368 E0.07747
G1 X134.771 Y99.486 E0.01606
G1 X135.526 Y100.119 E0.07705
G1 X135.676 Y100.269 E0.01659
G1 X136.319 Y101.037 E0.07833
G1 X136.437 Y101.206 E0.01612
G1 X136.919 Y102.038 E0.07519
G1 X137.01 Y102.231 E0.01669
G1 X137.261 Y102.858 E0.05282
G1 X137.415 Y103.394 E0.04361
G1 X137.586 Y104.37 E0.07749
G1 X137.625 Y105.069 E0.05475
G1 X137.625 Y135.369 E2.36955
G1 X137.604 Y135.853 E0.03789
G1 X137.586 Y136.064 E0.01656
G1 X137.415 Y137.047 E0.07803
G1 X137.362 Y137.246 E0.0161
G1 X137.15 Y137.887 E0.0528
G1 X136.914 Y138.412 E0.04501
G1 X136.446 Y139.221 E0.07309
G1 X136.328 Y139.391 E0.01618
G1 X135.91 Y139.922 E0.05285
G1 X135.512 Y140.334 E0.0448
G1 X134.758 Y140.964 E0.07684
G1 X134.589 Y141.082 E0.01612
G1 X133.757 Y141.564 E0.07519
G1 X133.564 Y141.655 E0.01669
G1 X132.937 Y141.906 E0.05282
G1 X132.401 Y142.06 E0.04361
G1 X131.421 Y142.231 E0.0778
G1 X130.724 Y142.27 E0.05459
G1 X106.071 Y142.27 E1.92794
G1 X105.572 Y142.248 E0.03906
G1 X105.049 Y142.202 E0.04106
G1 X104.062 Y142.027 E0.07839
G1 X103.562 Y141.892 E0.0405
G1 X102.625 Y141.548 E0.07806
G1 X102.148 Y141.324 E0.04121
G1 X101.299 Y140.832 E0.07674
G1 X100.874 Y140.534 E0.04059
G1 X100.115 Y139.898 E0.07744
G1 X99.744 Y139.527 E0.04103
G1 X99.108 Y138.768 E0.07744
G1 X98.81 Y138.343 E0.04059
G1 X98.309 Y137.476 E0.07831
G1 X98.087 Y136.999 E0.04114
G1 X97.748 Y136.064 E0.07778
G1 X97.614 Y135.562 E0.04063
G1 X97.443 Y134.593 E0.07695
G1 X97.397 Y134.072 E0.0409
G1 X97.375 Y133.571 E0.03922
G1 X97.375 Y106.866 E2.08841
M204 S550
G0 F9000 X98.135 Y106.866
M204 S480
G1 F1200 X98.155 Y106.424 E0.0346
G1 X98.202 Y105.901 E0.04106
G1 X98.35 Y105.064 E0.06647
G1 X98.484 Y104.564 E0.04048
G1 X98.784 Y103.743 E0.06836
G1 X99.008 Y103.266 E0.04121
G1 X99.435 Y102.53 E0.06654
G1 X99.733 Y102.105 E0.04059
G1 X100.29 Y101.443 E0.06766
G1 X100.662 Y101.072 E0.04109
G1 X101.309 Y100.528 E0.06611
G1 X101.733 Y100.23 E0.04053
G1 X102.486 Y99.795 E0.06801
G1 X102.962 Y99.573 E0.04107
G1 X103.778 Y99.276 E0.06791
G1 X104.281 Y99.142 E0.04071
G1 X105.12 Y98.995 E0.06661
G1 X105.643 Y98.949 E0.04106
G1 X106.076 Y98.93 E0.03389
G1 X130.724 Y98.93 E1.92754
G1 X131.144 Y98.948 E0.03288
G1 X131.355 Y98.966 E0.01656
G1 X132.223 Y99.119 E0.06893
G1 X132.423 Y99.173 E0.0162
G1 X133.232 Y99.469 E0.06737
G1 X133.424 Y99.559 E0.01658
G1 X134.166 Y99.99 E0.06711
G1 X134.334 Y100.108 E0.01606
G1 X134.988 Y100.657 E0.06678
G1 X135.138 Y100.807 E0.01659
G1 X135.695 Y101.472 E0.06784
G1 X135.813 Y101.641 E0.01612
G1 X136.231 Y102.362 E0.06517
G1 X136.322 Y102.555 E0.01669
G1 X136.628 Y103.391 E0.06962
G1 X136.681 Y103.59 E0.0161
G1 X136.829 Y104.435 E0.06709
G1 X136.865 Y105.069 E0.04966
G1 X136.865 Y135.369 E2.36955
G1 X136.847 Y135.789 E0.03288
G1 X136.829 Y136 E0.01656
G1 X136.681 Y136.851 E0.06755
G1 X136.628 Y137.05 E0.0161
G1 X136.318 Y137.895 E0.07039
G1 X136.227 Y138.087 E0.01662
G1 X135.821 Y138.788 E0.06335
G1 X135.703 Y138.958 E0.01618
G1 X135.126 Y139.646 E0.07022
G1 X134.976 Y139.795 E0.01653
G1 X134.323 Y140.34 E0.06652
G1 X134.154 Y140.458 E0.01612
G1 X133.433 Y140.876 E0.06517
G1 X133.24 Y140.967 E0.01669
G1 X132.404 Y141.273 E0.06962
G1 X132.205 Y141.326 E0.0161
G1 X131.356 Y141.474 E0.0674
G1 X130.724 Y141.51 E0.0495
G1 X106.071 Y141.51 E1.92794
G1 X105.638 Y141.491 E0.03389
G1 X105.115 Y141.445 E0.04106
G1 X104.26 Y141.293 E0.06791
G1 X103.76 Y141.158 E0.0405
G1 X102.948 Y140.861 E0.06762
G1 X102.471 Y140.637 E0.04121
G1 X101.735 Y140.21 E0.06654
G1 X101.31 Y139.912 E0.04059
G1 X100.653 Y139.36 E0.06711
G1 X100.282 Y138.989 E0.04103
G1 X99.73 Y138.332 E0.06711
G1 X99.432 Y137.907 E0.04059
G1 X98.998 Y137.155 E0.0679
G1 X98.776 Y136.678 E0.04114
G1 X98.482 Y135.868 E0.06739
G1 X98.348 Y135.366 E0.04063
G1 X98.2 Y134.526 E0.0667
G1 X98.154 Y134.005 E0.0409
G1 X98.135 Y133.571 E0.03397
G1 X98.135 Y106.866 E2.08841
M204 S550
G0 F9000 X98.895 Y106.866
M204 S480
G1 F1200 X98.912 Y106.492 E0.02928
G1 X98.959 Y105.969 E0.04106
G1 X99.084 Y105.261 E0.05622
G1 X99.218 Y104.761 E0.04048
G1 X99.472 Y104.066 E0.05787
G1 X99.696 Y103.589 E0.04121
G1 X100.058 Y102.966 E0.05635
G1 X100.356 Y102.541 E0.04059
G1 X100.826 Y101.981 E0.05717
G1 X101.198 Y101.61 E0.04109
G1 X101.746 Y101.15 E0.05595
G1 X102.17 Y100.852 E0.04053
G1 X102.807 Y100.484 E0.05753
G1 X103.283 Y100.262 E0.04107
G1 X103.974 Y100.011 E0.05749
G1 X104.477 Y99.877 E0.04071
G1 X105.187 Y99.752 E0.05638
G1 X105.71 Y99.706 E0.04106
G1 X106.076 Y99.69 E0.02865
G1 X130.724 Y99.69 E1.92754
G1 X131.079 Y99.705 E0.02779
G1 X131.29 Y99.723 E0.01656
G1 X132.025 Y99.853 E0.05837
G1 X132.225 Y99.907 E0.0162
G1 X132.909 Y100.157 E0.05695
G1 X133.101 Y100.247 E0.01658
G1 X133.73 Y100.611 E0.05683
G1 X133.898 Y100.729 E0.01606
G1 X134.451 Y101.194 E0.0565
G1 X134.601 Y101.344 E0.01659
G1 X135.072 Y101.907 E0.0574
G1 X135.19 Y102.076 E0.01612
G1 X135.544 Y102.686 E0.05515
G1 X135.635 Y102.879 E0.01669
G1 X135.893 Y103.586 E0.05886
G1 X135.946 Y103.785 E0.0161
G1 X136.071 Y104.501 E0.05684
G1 X136.105 Y105.069 E0.0445
G1 X136.105 Y135.369 E2.36955
G1 X136.09 Y135.724 E0.02779
G1 X136.072 Y135.935 E0.01656
G1 X135.946 Y136.656 E0.05724
G1 X135.893 Y136.855 E0.0161
G1 X135.631 Y137.569 E0.05948
G1 X135.54 Y137.761 E0.01662
G1 X135.197 Y138.354 E0.05357
G1 X135.079 Y138.524 E0.01618
G1 X134.591 Y139.107 E0.05946
G1 X134.441 Y139.256 E0.01653
G1 X133.888 Y139.717 E0.0563
G1 X133.719 Y139.835 E0.01612
G1 X133.109 Y140.189 E0.05515
G1 X132.916 Y140.28 E0.01669
G1 X132.209 Y140.538 E0.05886
G1 X132.01 Y140.591 E0.0161
G1 X131.291 Y140.717 E0.05708
G1 X130.724 Y140.75 E0.04442
G1 X106.071 Y140.75 E1.92794
G1 X105.705 Y140.734 E0.02865
G1 X105.182 Y140.688 E0.04106
G1 X104.458 Y140.559 E0.05751
G1 X103.958 Y140.424 E0.0405
G1 X103.271 Y140.173 E0.0572
G1 X102.794 Y139.949 E0.04121
G1 X102.171 Y139.587 E0.05635
G1 X101.746 Y139.289 E0.04059
G1 X101.19 Y138.823 E0.05673
G1 X100.819 Y138.452 E0.04103
G1 X100.353 Y137.896 E0.05673
G1 X100.055 Y137.471 E0.04059
G1 X99.687 Y136.835 E0.05746
G1 X99.465 Y136.358 E0.04114
G1 X99.216 Y135.672 E0.05707
G1 X99.082 Y135.17 E0.04063
G1 X98.957 Y134.46 E0.05638
G1 X98.911 Y133.939 E0.0409
G1 X98.895 Y133.571 E0.02881
G1 X98.895 Y106.866 E2.08841
M204 S550
G0 F9000 X99.655 Y106.866
M204 S480
G1 F1200 X99.669 Y106.56 E0.02396
G1 X99.716 Y106.037 E0.04106
G1 X99.819 Y105.458 E0.04599
G1 X99.953 Y104.958 E0.04048
G1 X100.16 Y104.389 E0.04735
G1 X100.384 Y103.912 E0.04121
G1 X100.68 Y103.403 E0.04605
G1 X100.978 Y102.978 E0.04059
G1 X101.363 Y102.519 E0.04685
G1 X101.735 Y102.148 E0.04109
G1 X102.183 Y101.772 E0.04574
G1 X102.607 Y101.474 E0.04053
G1 X103.128 Y101.173 E0.04705
G1 X103.604 Y100.951 E0.04107
G1 X104.17 Y100.745 E0.0471
G1 X104.673 Y100.611 E0.04071
G1 X105.253 Y100.509 E0.04605
G1 X105.776 Y100.463 E0.04106
G1 X106.076 Y100.45 E0.02348
G1 X130.724 Y100.45 E1.92754
G1 X131.015 Y100.462 E0.02278
G1 X131.226 Y100.48 E0.01656
G1 X131.826 Y100.586 E0.04765
G1 X132.026 Y100.64 E0.0162
G1 X132.587 Y100.845 E0.04671
G1 X132.779 Y100.935 E0.01658
G1 X133.293 Y101.233 E0.04646
G1 X133.461 Y101.351 E0.01606
G1 X133.913 Y101.732 E0.04623
G1 X134.063 Y101.882 E0.01659
G1 X134.449 Y102.342 E0.04696
G1 X134.567 Y102.511 E0.01612
G1 X134.856 Y103.01 E0.0451
G1 X134.947 Y103.203 E0.01669
G1 X135.159 Y103.782 E0.04822
G1 X135.212 Y103.981 E0.0161
G1 X135.314 Y104.566 E0.04644
G1 X135.345 Y105.069 E0.03941
G1 X135.345 Y135.369 E2.36955
G1 X135.333 Y135.66 E0.02278
G1 X135.315 Y135.871 E0.01656
G1 X135.212 Y136.46 E0.04676
G1 X135.159 Y136.659 E0.0161
G1 X134.944 Y137.244 E0.04874
G1 X134.853 Y137.436 E0.01662
G1 X134.573 Y137.921 E0.0438
G1 X134.455 Y138.091 E0.01618
G1 X134.055 Y138.567 E0.04862
G1 X133.905 Y138.716 E0.01653
G1 X133.453 Y139.094 E0.04608
G1 X133.284 Y139.212 E0.01612
G1 X132.785 Y139.501 E0.0451
G1 X132.592 Y139.592 E0.01669
G1 X132.013 Y139.804 E0.04822
G1 X131.814 Y139.857 E0.0161
G1 X131.226 Y139.96 E0.04668
G1 X130.724 Y139.99 E0.03933
G1 X106.071 Y139.99 E1.92794
G1 X105.771 Y139.977 E0.02348
G1 X105.248 Y139.931 E0.04106
G1 X104.657 Y139.826 E0.04694
G1 X104.157 Y139.691 E0.0405
G1 X103.594 Y139.485 E0.04688
G1 X103.117 Y139.261 E0.04121
G1 X102.608 Y138.965 E0.04605
G1 X102.183 Y138.667 E0.04059
G1 X101.728 Y138.285 E0.04646
G1 X101.357 Y137.914 E0.04103
G1 X100.975 Y137.459 E0.04646
G1 X100.677 Y137.034 E0.04059
G1 X100.376 Y136.514 E0.04699
G1 X100.154 Y136.037 E0.04114
G1 X99.951 Y135.476 E0.04666
G1 X99.817 Y134.974 E0.04063
G1 X99.714 Y134.393 E0.04614
G1 X99.668 Y133.872 E0.0409
G1 X99.655 Y133.571 E0.02356
G1 X99.655 Y106.866 E2.08841
M204 S550
G0 F9000 X100.415 Y106.866
M204 S480
G1 F1200 X100.426 Y106.628 E0.01863
G1 X100.473 Y106.105 E0.04106
G1 X100.553 Y105.654 E0.03582
G1 X100.687 Y105.154 E0.04048
G1 X100.848 Y104.712 E0.03679
G1 X101.072 Y104.235 E0.04121
G1 X101.302 Y103.839 E0.03581
G1 X101.6 Y103.414 E0.04059
G1 X101.9 Y103.058 E0.03641
G1 X102.272 Y102.687 E0.04109
G1 X102.62 Y102.394 E0.03558
G1 X103.044 Y102.096 E0.04053
G1 X103.45 Y101.861 E0.03669
G1 X103.926 Y101.639 E0.04107
G1 X104.365 Y101.48 E0.03651
G1 X104.868 Y101.346 E0.04071
G1 X105.32 Y101.266 E0.0359
G1 X105.843 Y101.22 E0.04106
G1 X106.076 Y101.21 E0.01824
G1 X130.724 Y101.21 E1.92754
G1 X131.161 Y101.238 E0.03424
G1 X131.628 Y101.32 E0.03708
G1 X132.264 Y101.533 E0.05245
G1 X132.856 Y101.855 E0.0527
G1 X133.376 Y102.269 E0.05198
G1 X133.826 Y102.777 E0.05307
G1 X134.169 Y103.335 E0.05122
G1 X134.424 Y103.977 E0.05402
G1 X134.557 Y104.632 E0.05227
G1 X134.585 Y105.069 E0.03424
G1 X134.585 Y135.369 E2.36955
G1 X134.557 Y135.806 E0.03424
G1 X134.477 Y136.265 E0.03644
G1 X134.258 Y136.918 E0.05386
G1 X133.948 Y137.488 E0.05074
G1 X133.52 Y138.028 E0.05389
G1 X133.018 Y138.471 E0.05236
G1 X132.46 Y138.814 E0.05122
G1 X131.818 Y139.069 E0.05402
G1 X131.161 Y139.202 E0.05242
G1 X130.724 Y139.23 E0.03424
G1 X106.071 Y139.23 E1.92794
G1 X105.838 Y139.22 E0.01824
G1 X105.315 Y139.174 E0.04106
G1 X104.855 Y139.092 E0.03654
G1 X104.355 Y138.957 E0.0405
G1 X103.917 Y138.797 E0.03647
G1 X103.44 Y138.573 E0.04121
G1 X103.044 Y138.343 E0.03581
G1 X102.619 Y138.045 E0.04059
G1 X102.265 Y137.748 E0.03614
G1 X101.894 Y137.377 E0.04103
G1 X101.597 Y137.023 E0.03614
G1 X101.299 Y136.598 E0.04059
G1 X101.065 Y136.193 E0.03658
G1 X100.843 Y135.716 E0.04114
G1 X100.685 Y135.28 E0.03627
G1 X100.551 Y134.778 E0.04063
G1 X100.471 Y134.326 E0.0359
G1 X100.425 Y133.805 E0.0409
G1 X100.415 Y133.571 E0.01832
G1 X100.415 Y106.866 E2.08841
M204 S550
G0 F9000 X101.175 Y106.866
M204 S480
G1 F1200 X101.183 Y106.696 E0.01331
G1 X101.23 Y106.173 E0.04106
G1 X101.287 Y105.851 E0.02557
G1 X101.421 Y105.351 E0.04048
G1 X101.536 Y105.035 E0.0263
G1 X101.76 Y104.558 E0.04121
G1 X101.924 Y104.275 E0.02558
G1 X102.222 Y103.85 E0.04059
G1 X102.436 Y103.596 E0.02597
G1 X102.808 Y103.225 E0.04109
G1 X103.057 Y103.016 E0.02542
G1 X103.481 Y102.718 E0.04053
G1 X103.771 Y102.55 E0.02621
G1 X104.247 Y102.328 E0.04107
G1 X104.561 Y102.214 E0.02612
G1 X105.064 Y102.08 E0.04071
G1 X105.387 Y102.023 E0.02565
G1 X105.91 Y101.977 E0.04106
G1 X106.076 Y101.97 E0.01299
G1 X130.724 Y101.97 E1.92754
G1 X131.096 Y101.995 E0.02916
G1 X131.43 Y102.054 E0.02652
G1 X131.941 Y102.222 E0.04207
G1 X132.419 Y102.477 E0.04237
G1 X132.839 Y102.806 E0.04172
G1 X133.203 Y103.212 E0.04264
G1 X133.482 Y103.659 E0.04121
G1 X133.69 Y104.173 E0.04336
G1 X133.8 Y104.697 E0.04187
G1 X133.825 Y105.069 E0.02916
G1 X133.825 Y135.369 E2.36955
G1 X133.8 Y135.741 E0.02916
G1 X133.743 Y136.069 E0.02603
G1 X133.571 Y136.593 E0.04313
G1 X133.324 Y137.054 E0.0409
G1 X132.984 Y137.489 E0.04318
G1 X132.583 Y137.848 E0.04209
G1 X132.136 Y138.127 E0.04121
G1 X131.622 Y138.335 E0.04336
G1 X131.096 Y138.445 E0.04202
G1 X130.724 Y138.47 E0.02916
G1 X106.071 Y138.47 E1.92794
G1 X105.905 Y138.463 E0.01299
G1 X105.382 Y138.417 E0.04106
G1 X105.053 Y138.358 E0.02614
G1 X104.553 Y138.223 E0.0405
G1 X104.24 Y138.109 E0.02605
G1 X103.763 Y137.885 E0.04121
G1 X103.48 Y137.721 E0.02558
G1 X103.055 Y137.423 E0.04059
G1 X102.802 Y137.211 E0.02581
G1 X102.431 Y136.84 E0.04103
G1 X102.219 Y136.587 E0.02581
G1 X101.921 Y136.162 E0.04059
G1 X101.754 Y135.873 E0.0261
G1 X101.532 Y135.396 E0.04114
G1 X101.419 Y135.084 E0.02595
G1 X101.285 Y134.582 E0.04063
G1 X101.228 Y134.259 E0.02565
G1 X101.182 Y133.738 E0.0409
G1 X101.175 Y133.571 E0.01307
G1 X101.175 Y106.866 E2.08841
M204 S550
G0 F9000 X101.94 Y106.764
M204 S480
G1 F1200 X101.987 Y106.241 E0.04106
G1 X102.021 Y106.048 E0.01533
G1 X102.155 Y105.548 E0.04048
G1 X102.224 Y105.358 E0.01581
G1 X102.448 Y104.881 E0.04121
G1 X102.547 Y104.712 E0.01532
G1 X102.845 Y104.287 E0.04059
G1 X102.973 Y104.134 E0.0156
G1 X103.345 Y103.763 E0.04109
G1 X103.494 Y103.637 E0.01526
G1 X103.918 Y103.339 E0.04053
G1 X104.092 Y103.239 E0.01569
G1 X104.568 Y103.017 E0.04107
G1 X104.757 Y102.948 E0.01573
G1 X105.26 Y102.814 E0.04071
G1 X105.453 Y102.78 E0.01533
G1 X106.076 Y102.73 E0.04888
G1 X130.724 Y102.73 E1.92754
G1 X131.032 Y102.752 E0.02415
G1 X131.432 Y102.841 E0.03205
G1 X131.811 Y103 E0.03214
G1 X132.15 Y103.217 E0.03148
G1 X132.451 Y103.494 E0.03199
G1 X132.698 Y103.816 E0.03174
G1 X132.885 Y104.176 E0.03172
G1 X133.009 Y104.568 E0.03215
G1 X133.061 Y104.971 E0.03178
G1 X133.065 Y135.369 E2.37721
G1 X133.043 Y135.677 E0.02415
G1 X132.956 Y136.072 E0.03163
G1 X132.793 Y136.459 E0.03284
G1 X132.582 Y136.791 E0.03076
G1 X132.298 Y137.099 E0.03276
G1 X131.979 Y137.343 E0.03141
G1 X131.619 Y137.53 E0.03172
G1 X131.227 Y137.654 E0.03215
G1 X130.821 Y137.706 E0.03201
G1 X106.071 Y137.71 E1.93552
G1 X105.448 Y137.66 E0.04888
G1 X105.251 Y137.625 E0.01565
G1 X104.751 Y137.49 E0.0405
G1 X104.563 Y137.421 E0.01566
G1 X104.086 Y137.197 E0.04121
G1 X103.917 Y137.098 E0.01532
G1 X103.492 Y136.8 E0.04059
G1 X103.34 Y136.673 E0.01549
